X:1
T:James Gibb editions
T:Psalm 70 (Becker) - Schütz
%%score [ ( 1 2 ) ( 3 4 ) ]
L:1/8
Q:1/4=100
M:2/2
K:Bb
V:1 treble nm="Soprano Alto"
V:2 treble 
V:3 bass nm="Tenor Bass"
V:4 bass 
V:1
"^Cornelius Becker\n(1561-1604)""^Psalm 70, SWV 167""^Heinrich Schütz\n(1585-1672)" e4 d4 | %1
w: ~Eil Herr,|
 c2 B4 G2 | A2 B2 c4 | F4 c4 | f2 e4 d2 | B2 c2 d4 | f4 g4 |[M:2/2] f2 e4 c2 | (=B2 c4 B2) | c8 | %10
w: mein Gott, zu|ret- ten mich,|mit dei-|ner Hülf ver-|zeuch doch nicht,|zu Schan-|den wollst du|ma\- * *|chen,|
 G4 c4 | e2 d4 c2 | B2 c2 A4 | d4 c4 | f2 d4 g2 | (^f2 g4 f2) | g8 |] %17
w: die mei-|ne Seel in|Un- ge- fäll|zu brin-|gen ste- tig|trach\- * *|ten.|
V:2
 G4 G4 | E2 G4 E2 | C2 F2 =E4 | C4 F4 | D2 G4 A2 | G2 C2 F4 | B4 B4 |[M:2/2] B2 B4 _A2 | G8 | G8 | %10
 C4 G4 | G2 B4 A2 | G2 G2 ^F4 | B4 A4 | A2 B4 c2 | A8 | G8 |] %17
V:3
 C4 B,4 | C2 E4 B,2 | =A,2 F,2 G,4 | A,4 A,4 | B,2 B,4 F2 | E2 E2 D4 | D4 E4 | %7
w: |||||||
[M:2/2]"^3. Es müssen fröhlich sein in dir, \ndie nach dir fragen mit Begier,\nund sich von Herzen freuen, \nsag'n fort und fort: gelobt sei Gott\nund hoch gebenedeiet.\n\n4. Ich aber bin elend und arm, \ndarum, o Gott, dich mein erbarm,\neil, bald mich zu erretten, \nmein Zuversicht verzeuch doch nicht,\nhilf mir aus allen Nöten." F2 G2 C2 (F2- | %8
w: * wollst du ma\-|
 F2 E2 D4) | C8 | C4 E4 | C2 F4 F2 | D2 E2 D4 | F4 F4 | F2 G4 C2 | D8 | D8 |] %17
w: |chen.||||||||
V:4
 C,4 G,4 | _A,2 E,4 E,2 | F,2 D,2 C,4 | F,4 F,4 | B,,2 E,4 F,2 | G,2 A,2 B,4 | B,,4 E,4 | %7
[M:2/2] D,2 E,4 F,2 | G,8 | C,8 | C4 C4 | C2 B,4 F,2 | G,2 C,2 D,4 | B,,4 F,4 | D,2 G,4 E,2 | D,8 | %16
 G,8 |] %17

